!!!COM: Joplin, Scott
!!!CDT: 1868/11/24/-1917/04/01/
!!!OTL: Search-Light Rag
!!!ODT: 1907///
**kern	**kern	**dynam
*staff2	*staff1	*staff1/2
*Ipiano	*Ipiano	*Ipiano
*>[I,A,A1,A,A2,B,B1,B,B2,C,D,D1,D,D2,E,E1,E,E2]	*>[I,A,A1,A,A2,B,B1,B,B2,C,D,D1,D,D2,E,E1,E,E2]	*>[I,A,A1,A,A2,B,B1,B,B2,C,D,D1,D,D2,E,E1,E,E2]
*>I	*>I	*>I
*clefF4	*clefG2	*clefG2
*k[b-e-]	*k[b-e-]	*k[b-e-]
*M2/4	*M2/4	*M2/4
*MM90	*MM90	*MM90
=1-	=1-	=1-
8B-L	8b-L	mf
[8GJ	[8gJ	.
16GLL]	16gLL]	.
16DJ	16dJ	.
8GJ	8gJ	.
=2	=2	=2
8FL	8fL	.
[8DJ	[8dJ	.
16DLL]	16dLL]	.
16BB-J	16B-J	.
8DJ	8dJ	.
=3	=3	=3
8CL	8cL	.
[8BB-J	[8B-J	.
(16BB-LL]	(16B-LL]	.
16D	16d	.
16F	16f	.
16dJJ)	16ddJJ)	.
=4	=4	=4
8c	8cc	.
8r	8r	.
8FF^ 8F^	8f^ 8a^ 8cc^ 8ff^	.
=5!|:	=5!|:	=5!|:
*>A	*>A	*>A
*	*^	*
8BB- 8B-L	8.ddL	2f 2b-	mf
8F 8B- 8dJ	.	.	.
.	16ccJk	.	.
8GG 8GL	(16b-LL	.	.
.	16cc	.	.
8FF 8FJ	16dd	.	.
.	16ee-JJ)	.	.
=6	=6	=6	=6
8DD 8DL	16ffLK	4b-	.
.	8gg	.	.
8F 8B- 8dJ	.	.	.
.	16ddJk	.	.
8BB-L	8ffL	8ddL	.
8A- 8B- 8dJ	(16dddL	8ffJ	.
.	16cccJJ)	.	.
*	*v	*v	*
=7	=7	=7
8EE- 8E-L	8.gg (8.bb-L	.
8G 8B- 8e-J	.	.
.	16ff 16aaJk)	.
8GG 8GL	16ee- 16ggLK	.
.	8cc 8ee-	.
8GG- 8G-J	.	.
.	[16b- [16ddJk	.
=8	=8	=8
8FF (8FL	4b-] (4dd]	.
8BB- 8B-J	.	.
8AA 8AL	4cc 4ee-)	.
8FF 8FJ)	.	.
=9	=9	=9
*	*^	*
8BB- 8B-L	8.ddL	2b-	.
8F 8B- 8dJ	.	.	.
.	16ccJk	.	.
8GG 8GL	(16b-LL	.	.
.	16cc	.	.
8FF 8FJ	16dd	.	.
.	16ee-JJ)	.	.
=10	=10	=10	=10
8DD 8DL	16ffLK	[4b-	.
.	8gg	.	.
8B- 8d 8fJ	.	.	.
.	16ddJk	.	.
8DD- 8D-L	8ffL	8b-L]	.
8B- 8d- 8fJ	(16ffL	8b-J	.
.	16ggJJ)	.	.
=11	=11	=11	=11
8CC 8CL	(8.aaL	4cc	.
8A 8c 8fJ	.	.	.
.	16cccJk)	.	.
8CL	16ccLK	(16ccLK	.
.	8gg)	8b-	.
8B- 8c 8enJ	.	.	.
.	[16ffJk	16aJk	.
=12	=12	=12	=12
8F 8A 8c 8fL	8ffL]	(2a	>
8FF (8FJ	16ggL	.	.
.	16ffJJ	.	.
8GG 8GL	16ee-LL	.	.
.	16dd	.	.
8AA 8AJ)	16cc	.	.
.	&(16ffJJ&)	.	.
=13	=13	=13	=13
8BB- 8B-L	8.ddL	2f)	mf
8F 8B- 8dJ	.	.	.
.	16ccJk	.	.
8GG 8GL	(16b-LL	.	.
.	16cc	.	.
8FF 8FJ	16dd	.	.
.	16ee-JJ)	.	.
=14	=14	=14	=14
8DD 8DL	16ffLK	4b-	.
.	8gg	.	.
8F 8B- 8dJ	.	.	.
.	16ddJk	.	.
8BB-L	8ffL	4dd	.
8F 8B- 8dJ	(16eenL	.	.
.	16ffJJ)	.	.
=15	=15	=15	=15
8AA 8AL	(8.ff#L	4dd	<
8F# 8c 8dJ	.	.	.
.	16aaJk)	.	.
8DD 8DL	16eee-LK	4ff#	.
.	8ddd	.	.
8F# 8c 8dJ	.	.	.
.	16cccJk	.	.
*	*v	*v	*
=16	=16	=16
8G 8B- 8dL	4.gg 4.bb-	f
16BB- (16B-L	.	.
16AA 16AJJ	.	.
16GG 16GLL	.	.
16GG- 16G-J	.	.
8FF 8FJ)	8dd 8aa-	.
=17	=17	=17
8EE- 8E-L	8.ee- (8.ggL	.
8G 8B- 8e-J	.	.
.	16dd 16ffJk)	.
8GG 8GL	16cc (16ee-LL	.
.	16dd	.
8GG- 8G-J	16ee-	.
.	16bb-JJ)	.
=18	=18	=18
*	*^	*
8FF 8FL	8.dd 8.bb-L	2b-	.
8F 8B- 8dJ	.	.	.
.	16eenJk	.	.
8F 8B- 8dL	16dd (16ffLL	.	.
.	16ee-	.	.
16D (16dL	16ff	.	.
16D- 16d-JJ)	16ff- 16gg-JJ)	.	.
=19	=19	=19	=19
8C 8cL	16ee- 16ggnLK	4b-	>
.	8bb-	.	.
8G 8c 8e-J	.	.	.
.	16ee-Jk	.	.
4FF 4F	16g 16a (16ee-LL	4r	.
.	16f 16a 16ddJ	.	.
.	8e- 8a 8ccJ)	.	.
*	*v	*v	*
=20	=20	=20
*>A1	*>A1	*>A1
8BB- 8B-L	4.d 4.f 4.b-	mf
(16FF 16FL	.	.
16EEn 16EnJJ	.	.
16FF 16FLL	.	.
16FF# 16F#	.	.
16GG 16G	8f 8cc 8ee-	.
16AA) 16AJJ	.	.
=21:|!	=21:|!	=21:|!
*>A2	*>A2	*>A2
8BB- 8B-	8d 8f 8b-L	.
8r	16ffL	.
.	16ffJJ	.
4r	8ffL	.
.	8ffJ	.
=22	=22	=22
*>B	*>B	*>B
*k[]	*k[]	*k[]
8FF 8FL	(16ffLL	f
.	16a	.
8GG 8GJ	16ee-)	.
.	[16ffJJ	.
8AA 8AL	(16ffLL]	.
.	16ee-J)	.
8BB- 8B-J	8gJ	.
=23	=23	=23
8C 8cL	(16ee-LL	.
.	16g	.
8BBn 8BnJ	16g#	.
.	[16aJJ)	.
8C 8cL	(16aLL]	.
.	16ee-J	.
8C 8c#J	8gnJ)	.
=24	=24	=24
8D 8dL	(16fLL	.
.	16b-	.
8F 8B- 8dJ	16dd	.
.	[16f 16b- 16dd [16ffJJ)	.
16BB- (16B-LL	4f_ [4b- [4dd 4ff_	.
16C 16c	.	.
16D 16d	.	.
16C 16cJJ)	.	.
=25	=25	=25
8BB- 8B-L	8f] 8b-] 8dd] 8ffL]	.
8F 8B- 8dJ	(16ddL	.
.	16ccJJ	.
8F 8B- 8dL	16b-LL	.
.	16a	.
8BBn 8BnJ	16g	.
.	16g-JJ)	.
=26	=26	=26
8C 8cL	(16fLL	.
.	16a	.
8F 8A 8e-J	16cc	.
.	[16f) [16a [16cc [16ffJJ	.
16AA (16ALL	4f_ 4a_ 4cc_ 4ff_	.
16BB- 16B-	.	.
16C 16c	.	.
16BB- 16B-JJ)	.	.
=27	=27	=27
8AA 8AL	8f] 8a] 8cc] 8ffL]	.
8A 8e- 8fJ	(16ccL	.
.	16b-JJ	.
8F 8fL	16aLL	.
.	16a-	.
8E- 8e-J	16g	.
.	16g-JJ)	.
=28	=28	=28
8D 8dL	(16fLL	.
.	16b-	.
8F 8B- 8dJ	16dd	.
.	[16f [16b- [16dd [16ffJJ)	.
16BB- (16B-LL	4f_ 4b-] (4dd_ 4ff_	.
16C 16c	.	.
16D 16d	.	.
16BB- 16B-JJ)	.	.
=29	=29	=29
8FF 8F	8f] 8b-) 8dd] 8ffL]	.
8r	16ffL	.
.	16ffJJ	.
4r	8ffL	.
.	8ffJ	.
=30	=30	=30
8FF 8FL	(16ffLL	.
.	16a	.
8GG 8GJ	16ee-	.
.	[16ffJJ)	.
8AA 8AL	(16ffLL]	.
.	16ee-J	.
8BB- 8B-J	8gJ)	.
=31	=31	=31
4C 4c	(16ee-LL	.
.	16g	.
.	16g#	.
.	[16aJJ)	.
8C 8cL	(16aLL]	.
.	16ee-J	.
8C 8c#J	8gnJ)	.
=32	=32	=32
8D 8dL	(16fLL	.
.	16b-	.
8F 8B- 8dJ	16dd	.
.	[16f [16b- [16dd [16ffJJ)	.
16BB- 16B-LL	4f_ 4b-_ 4dd_ 4ff_	.
16C 16c	.	.
16D 16d	.	.
16C 16cJJ	.	.
=33	=33	=33
8BB- 8B-L	8f] 8b-] 8dd] 8ffL]	.
8F 8B- 8dJ	(16ddL	<
.	16ee-JJ)	.
8BB- 8B-L	8f 8b- 8dd 8ffL	.
8AA 8AJ	8f# 8cc 8dd 8ff#J	.
=34	=34	=34
*	*^	*
8GG 8GL	(8.ggL	2g 2bn 2dd	ff
8G 8Bn 8fJ	.	.	.
.	16aa-Jk)	.	.
8BBn 8BL	16aa-LL	.	.
.	16gg	.	.
8G 8B 8fJ	16gg	.	.
.	16ffJJ	.	.
=35	=35	=35	=35
(16CLL	(8ffL	4g 4cc	.
16G	.	.	.
16c	8ee-J	.	.
16e-JJ	.	.	.
4en)	4cc#)	4g 4b-	.
=36	=36	=36	=36
*	*v	*v	*
*>B1	*>B1	*>B1
*	*^	*
(8fL	(16ddLL	4b-	f
.	16ee-	.	.
8dJ	16ff	.	.
.	16ggJJ)	.	.
8FL)	16f 16a 16ddLK	4r	.
.	8e- 8a 8cc	.	.
8FF 8FJ	.	.	.
.	[16d 16b-Jk	.	.
*	*v	*v	*
=37	=37	=37
8BB- 8B-	8d] 8b-L	.
8r	16ffL	.
.	16ffJJ	.
4r	8ffL	.
.	8ffJ	.
=38:|!	=38:|!	=38:|!
*>B2	*>B2	*>B2
*	*^	*
(8fL	(16ddLL	4b-	.
.	16ee-	.	.
8dJ	16ff	.	.
.	16ggJJ)	.	.
8FL)	16f 16a 16ddLK	4r	.
.	8e- 8a 8cc	.	.
8FF 8FJ	.	.	.
.	[16d [16b-Jk	.	.
*	*v	*v	*
=39	=39	=39
8BB- 8B-L	4.d] 4.b-]	>
(16FF 16FL	.	.
16EEn 16EnJJ	.	.
16FF 16FLL	.	.
16FF# 16F#	.	.
16GG 16G	8f 8cc 8ee-	.
16AA) 16AJJ	.	.
=40	=40	=40
*>C	*>C	*>C
*	*^	*
8BB- 8B-L	8.ddL	2f 2b-	mf
8F 8B- 8dJ	.	.	.
.	(16ccJk	.	.
8GG 8GL	16b-LL	.	.
.	16cc	.	.
8FF 8FJ	16dd	.	.
.	16ee-JJ)	.	.
=41	=41	=41	=41
8DD 8DL	16ffLK	4b-	.
.	8gg	.	.
8F 8B- 8dJ	.	.	.
.	16ddJk	.	.
8BB-L	(8ffL	8ddL	.
8A- 8B- 8dJ	16dddL	8ffJ	.
.	16cccJJ)	.	.
*	*v	*v	*
=42	=42	=42
8EE- 8E-L	8.gg 8.bb-L	.
8G 8B- 8e-J	.	.
.	16ff 16aaJk	.
8GG 8GL	16ee- 16ggLK	.
.	8cc 8ee-	.
8GG- 8G-J	.	.
.	16b- [16ddJk	.
=43	=43	=43
8FF (8FL	4b- (4dd]	.
8BB- 8B-J	.	.
8AA 8AL	4cc 4ee-)	.
8FF 8FJ)	.	.
=44	=44	=44
*	*^	*
8BB- 8B-L	8.ddL	2b-	.
8F 8B- 8dJ	.	.	.
.	(16ccJk	.	.
8GG 8GL	16b-LL	.	.
.	16cc	.	.
8FF 8FJ	16dd	.	.
.	16ee-JJ)	.	.
=45	=45	=45	=45
8DD 8DL	16ffLK	[4b-	.
.	8gg	.	.
8B- 8d 8fJ	.	.	.
.	16ddJk	.	.
8DD- 8D-L	8ffL	8b-L]	.
8B- 8d- 8fJ	(16ffL	8b-J	.
.	16ggJJ)	.	.
=46	=46	=46	=46
8CC 8CL	8.aaL	4cc	.
8A 8c 8fJ	.	.	.
.	16cccJk	.	.
8CL	16ccLK	16ccLK	.
.	8gg	8b-	.
8B- 8c 8enJ	.	.	.
.	[16ffJk	[16aJk	.
=47	=47	=47	=47
8F 8A 8c 8fL	8ffL]	(2a]	.
8FF 8FJ	16ggL	.	>
.	16ffJJ	.	.
8GG 8GL	16ee-LL	.	.
.	16dd	.	.
8AA 8AJ	16cc	.	.
.	&(16ffJJ&)	.	.
=48	=48	=48	=48
8BB- 8B-L	8.ddL	2f)	mf
8F 8B- 8dJ	.	.	.
.	(16ccJk	.	.
8GG 8GL	16b-LL	.	.
.	16cc	.	.
8FF 8FJ	16dd	.	.
.	16ee-JJ)	.	.
=49	=49	=49	=49
8DD 8DL	16ffLK	4b-	.
.	8gg	.	.
8F 8B- 8dJ	.	.	.
.	16ddJk	.	.
8BB-L	8ffL	4dd	.
8F 8B- 8dJ	16eenL	.	.
.	16ffJJ	.	.
=50	=50	=50	=50
8AA 8AL	8.ff#L	4dd	<
8F# 8c 8dJ	.	.	.
.	16aaJk	.	.
8DD 8DL	16eee-LK	4ff#	.
.	8ddd	.	.
8F# 8c 8dJ	.	.	.
.	16cccJk	.	.
*	*v	*v	*
=51	=51	=51
8G 8B- 8dL	4.gg 4.bb-	f
16BB- (16B-L	.	.
16AA 16AJJ	.	.
16GG 16GLL	.	.
16GG- 16G-J	.	.
8FF 8FJ)	8dd 8aa-	.
=52	=52	=52
8EE- 8E-L	8.ee- 8.ggL	.
8G 8B- 8e-J	.	.
.	16dd 16ffJk	.
8GG 8GL	16cc (16ee-LL	.
.	16dd	.
8GG- 8G-J	16ee-	.
.	16bb-JJ)	.
=53	=53	=53
*	*^	*
8FF 8FL	8.dd 8.bb-L	2b-	.
8F 8B- 8dJ	.	.	.
.	16eenJk	.	.
8F 8B- 8dL	16dd 16ffLL	.	.
.	16ee	.	.
16D 16dL	16ff	.	.
16D- 16d-JJ	16ff- 16gg-JJ	.	.
=54	=54	=54	=54
8C 8cL	16ee- (16ggnLK	4b-	.
.	8bb-	.	.
8G 8c 8e-J	.	.	.
.	16ee-Jk)	.	.
4FF 4F	16g 16a (16ee-LL	4r	.
.	16f 16a 16ddJ	.	.
.	8e- 8a 8ccJ)	.	.
*	*v	*v	*
=55	=55	=55
8BB- 8B-L	[4d [4b-	>
8AA- 8A-J	.	.
8GG 8GL	8d] 8b-L]	.
8FF 8FJ	8dd 8aa- 8bb-J	.
=56!|:	=56!|:	=56!|:
*>D	*>D	*>D
*k[b-e-a-]	*k[b-e-a-]	*k[b-e-a-]
8EE- 8E-L	16r	.
.	16ee- 16gg 16eee-LL	mp
8G 8B- 8e-J	16dd 16gg 16ddd	.
.	[16cc [16gg [16cccJJ	.
8GG 8GL	16cc] 16gg] 16cccLL]	.
.	16b- 16bb-	.
8GG- 8G-J	16cc 16ccc	.
.	16cc# 16ccc#JJ	.
=57	=57	=57
8FF 8FL	8dd 8aa- 8dddL	.
8A- 8B- 8dJ	16cc# 16ccc#L	.
.	[16dd [16aa- [16dddJJ	.
(16BB-LL	4dd] 4aa-] 4ddd]	.
16D	.	.
16F	.	.
16B-JJ)	.	.
=58	=58	=58
8FF 8FL	16r	.
.	16dd 16aa- 16dddLL	.
8A- 8B- 8dJ	16dd- 16aa- 16ddd-	.
.	[16cc [16aa- [16cccJJ	.
8BBB- 8BB-L	16cc] 16aa-] 16cccLL]	.
.	16f (16ff	.
8A- 8B- 8dJ	16g 16gg	.
.	16a- 16aa-JJ)	.
=59	=59	=59
16r	4an 4ee- 4ff# (4aan	.
(16CLL	.	.
16E-	.	.
16F#JJ	.	.
16GLL	4b- 4ee- 4gg 4bb-)	.
16E-J	.	.
8BB-J)	.	.
=60	=60	=60
8EE- 8E-L	16r	.
.	16ee- 16gg 16eee-LL	.
8G 8B- 8e-J	16dd 16gg 16ddd	.
.	[16cc [16gg [16cccJJ	.
8EE- 8E-L	16cc] 16gg] 16cccLL]	.
.	16b- (16bb-	.
8G 8B- 8e-J	16cc 16ccc	.
.	16cc# 16ccc#JJ)	.
=61	=61	=61
8DD 8DL	8dd 8gg 8bb- 8dddL	<
8G 8B- 8dJ	16cc# 16ccc#L	.
.	[16dd [16gg [16bb- [16dddJJ	.
(16DLL	4dd] 4gg] 4bb-] 4ddd]	.
16G	.	.
16B-	.	.
16dJJ)	.	.
=62	=62	=62
8DD 8DL	16r	.
.	16dd 16dddLL	<
8F# 8c 8dJ	16ee- 16eee-	.
.	[16dd [16ff# [16aan [16dddJJ	.
8DD 8DL	16dd] 16ff#] 16aa] 16dddLL]	.
.	16cc# 16ccc#J	.
8F# 8c 8dJ	8dd 8ff# 8aa 8dddJ	.
=63	=63	=63
8GG 8GL	8dd 8gg 8bb- 8dddL	f
8FF# 8F#J	8dd 8aan 8dddJ	.
8FFn 8FnL	4dd 4aa- 4bb- 4ddd	.
8BBB- 8BB-J	.	.
=64	=64	=64
8EE- 8E-L	16r	.
.	16ee- 16gg 16eee-LL	mp
8G 8B- 8e-J	16dd 16gg 16ddd	.
.	[16cc [16gg [16cccJJ	.
8GG 8GL	16cc] 16gg] 16cccLL]	.
.	16b- (16bb-	.
8GG- 8G-J	16cc 16ccc	.
.	16cc# 16ccc#JJ)	.
=65	=65	=65
8FF 8FL	8dd 8aa- 8dddL	.
8A- 8B- 8dJ	16cc# 16ccc#L	.
.	16dd 16aa- [16dddJJ	.
(16BB-LL	4dd 4aa- 4ddd]	.
16D	.	.
16F	.	.
16B-JJ)	.	.
=66	=66	=66
(8BnL	16r	.
.	16gg 16bbnLL	<
8GJ	16dd 16ddd	.
.	16ggJJ	.
8AnL	16bbLK	.
.	8dd 8ddd	.
8BJ)	.	.
.	[16ee- [16gg [16ccc [16eee-Jk	.
=67	=67	=67
(16cLL	4ee-_ 4gg_ 4ccc_ 4eee-_	.
16F#	.	.
16G	.	.
16E-JJ	.	.
8CL)	8ee-] 8gg] 8ccc] 8eee-L]	.
8BB- 8B-J	8ee- 8gg 8ddd-J	.
=68	=68	=68
*	*^	*
8AA- 8A-L	8aa- 8cccL	4ee-	.
8A- 8c 8e-J	(16bb-L	.	.
.	16aa-JJ)	.	.
8C (8cL	16ee-LK	8.ee-L	.
.	8aa-	.	.
8C- 8c-J)	.	.	.
.	[16ggJk	[16ee-Jk	.
=69	=69	=69	=69
8BB- 8B-L	(16ggLL]	4ee-]	<
.	16aa-	.	.
8G 8B- 8e-J	16aan	.	.
.	16bb-JJ)	.	.
8AAn 8AnL	4r	8ee- 8ff# 8cccL	.
8FF# 8F#J	.	8cc 8ee- 8aanJ	.
=70	=70	=70	=70
*	*v	*v	*
*>D1	*>D1	*>D1
*	*^	*
8GG 8GL	(16bb-LL	4b- 4ee-	f
.	16gg	.	.
8G 8B- 8e-J	16ff	.	.
.	16ee-JJ	.	.
8BB-L	4r	16dd 16ffLK)	.
.	.	8b- 8dd 8bb-	.
8A- 8B- 8dJ	.	.	.
.	.	[16g [16b- [16ee-Jk	.
*	*v	*v	*
=71	=71	=71
8E- 8e-L	4g_ 4b-_ 4ee-_	.
8BB- 8B-J	.	.
8GG 8GL	8g] 8b-] 8ee-L]	.
8FF 8FJ	8dd 8aa- 8bb-J	.
=72:|!	=72:|!	=72:|!
*>D2	*>D2	*>D2
*	*^	*
8GG 8GL	(16bb-LL	4b- 4ee-	f
.	16gg	.	.
8G 8B- 8e-J	16ff	.	.
.	16ee-JJ)	.	.
8BB-L	4r	16dd 16ffLK	.
.	.	8b- 8dd 8bb-	.
8A- 8B- 8dJ	.	.	.
.	.	[16g [16b- [16ee-Jk	.
*	*v	*v	*
=73	=73	=73
8EE- 8E-L	4g_ 4b-_ 4ee-_	.
8GG 8GJ	.	.
8BB- 8B-L	8g] 8b-] 8ee-L]	>
16GG (16GL	(16b-L	.
16GG- 16G-JJ)	16bnJJ)	.
=74!|:	=74!|:	=74!|:
*>E	*>E	*>E
8FF 8FL	(16ccLK	mp
.	8dd 8aa- 8bb-	.
8A- 8B- 8dJ	.	.
.	16ccJk	.
8BBB- 8BB-L	8dd 8aa- 8bb-L	.
8A- 8B- 8dJ	16ccL)	.
.	[16dd [16aa- [16bb-JJ	.
=75	=75	=75
8FF 8FL	16dd] 16aa-] 16bb-LL]	.
.	(16cc	.
8A- 8B- 8dJ	16dd 16aa- 16bb-	.
.	16cccJJ	.
8BBB- 8BB-L	16bb-LL	.
.	16aa-	.
8A- 8B- 8dJ	16ff	.
.	16ddJJ)	.
=76	=76	=76
8EE- 8E-L	(16ccLK	.
.	8ee- 8gg 8bb-	.
8G 8B- 8e-J	.	.
.	16ccJk	.
8BBB- 8BB-L	8ee- 8gg 8bb-L	.
8G 8B- 8e-J	16ccL)	.
.	[16ee- [16gg [16bb-JJ	.
=77	=77	=77
8EE- 8E-L	16ee-] 16gg] 16bb-LL]	.
.	(16cc	.
8G 8B- 8e-J	16ee- 16gg 16bb-	.
.	16cccJJ	.
8BBB- 8BB-L	16bb-LL)	.
.	(16gg	.
8G 8B- 8e-J	16bb-	.
.	16eee-JJ)	.
=78	=78	=78
8AAA- 8AA-L	16ff 16fffLL	.
.	16aa-	.
8A- 8c 8e- 8fJ	16ccc	.
.	[16ee- [16eee-JJ	.
8AAAn 8AAnL	16ee-] 16eee-LL]	.
.	16dd 16dddJ	.
8An 8c 8e- 8f#J	8cc 8cccJ	.
=79	=79	=79
*	*^	*
8BBB- 8BB-L	4r	16cc (16cccLL	<
.	.	16ee-	.
8B- 8e- 8gJ	.	16gg)	.
.	.	16b- 16een [16bb-JJ	.
8CC 8CL	(16bb-LL]	4b- 4ee	.
.	16aa-J	.	.
8B- 8c 8enJ	8ggJ)	.	.
=80	=80	=80	=80
8FF 8FL	16ee- (16ggLL	8.anL	f
.	16cc	.	.
8F 8An 8c 8e-J	16ee-	.	.
.	[16ee- [16ggJJ)	[16aJk	.
8FFF 8FFL	16ee-] (16ggLL]	4a]	.
.	16cc	.	.
8F 8A 8c 8e-J	16dd	.	.
.	16ee-JJ)	.	.
*	*v	*v	*
=81	=81	=81
8BBB- 8BB-L	[4a- [4dd [4ff	.
16DD 16DL	.	.
16FF 16FJJ	.	.
8BB- 8B-L	8a-] 8dd] 8ffL]	>
16GG (16GL	(16b-L	.
16GG- 16G-JJ)	16bnJJ)	.
=82	=82	=82
8FF 8FL	(16ccLK	mp
.	8dd 8aa- 8bb-	.
8A- 8B- 8dJ	.	.
.	16ccJk	.
8BBB- 8BB-L	8dd 8aa- 8bb-L	.
8A- 8B- 8dJ	16ccL)	.
.	[16dd [16aa- [16bb-JJ	.
=83	=83	=83
8FF 8FL	16dd] 16aa-] 16bb-LL]	.
.	(16cc	.
8A- 8B- 8dJ	16dd 16aa- 16bb-	.
.	16cccJJ	.
8BBB- 8BB-L	16bb-LL	.
.	16aa-	.
8A- 8B- 8dJ	16ff	.
.	16ddJJ)	.
=84	=84	=84
8EE- 8E-L	(16ccLK	.
.	8ee- 8gg 8bb-	.
8G 8B- 8e-J	.	.
.	16ccJk	.
8BBB- 8BB-L	8ee- 8gg 8bb-L	.
8G 8B- 8e-J	16ccL)	.
.	[16ee- [16gg [16bb-JJ	.
=85	=85	=85
8EE- 8E-L	16ee-] 16gg] 16bb-LL]	.
.	(16cc	.
8G 8B- 8e-J	16ee- 16gg 16bb-	.
.	16cccJJ	.
8BBB- 8BB-L	16bb-LL)	.
.	(16gg	.
8G 8B- 8e-J	16bb-	.
.	16eee-JJ)	.
=86	=86	=86
8AAA- 8AA-L	16ff 16fffLL	.
.	16aa-	.
8A- 8c 8e- 8fJ	16ccc	.
.	[16ee- [16eee-JJ	.
8AAAn 8AAnL	16ee-] 16eee-LL]	.
.	16dd 16dddJ	.
8An 8c 8e- 8f#J	8cc 8cccJ	.
=87	=87	=87
*	*^	*
8BBB- 8BB-L	4r	16cc (16cccLL	<
.	.	16ee-	.
8B- 8e- 8gJ	.	16gg)	.
.	.	16b- [16een [16bb-JJ	.
8CC 8CL	(16bb-LL]	4b- 4ee]	.
.	16aa-J	.	.
8B- 8c 8enJ	8ggJ)	.	.
=88	=88	=88	=88
8FF 8FL	16ee- (16ggLL	8.anL	f
.	16cc	.	.
8F 8An 8c 8e-J	16dd	.	.
.	[16ee-JJ)	[16aJk	.
8CC 8CL	16ee-LL]	4a]	.
.	16ee-J	.	.
8BBB- 8BB-J	8dd 8ffJ	.	.
*	*v	*v	*
=89	=89	=89
*>E1	*>E1	*>E1
8EE- 8E-L	[4g [4b- [4ee-	.
8GG 8GJ	.	.
8BB- 8B-L	8g] 8b-] 8ee-L]	.
16GG (16GL	16b-L	.
16GG- 16G-JJ)	16bnJJ	.
=90:|!	=90:|!	=90:|!
*>E2	*>E2	*>E2
8EE- 8E-L	4g 4b- 4ee-	.
8BB-	.	.
8EE-J	8ee- 8gg 8bb- 8eee-	.
==	==	==
*-	*-	*-
!!!ENC: Craig Stuart Sapp
!!!END: 2004/11/28/
